picto/do-not-dispose-of-residual-waste-or-sanitary-products-framed.svg

<svg class="color-immutable" width="30" height="30" viewBox="0 0 30 30" fill="none" xmlns="http://www.w3.org/2000/svg"><path d="M30 0H0V30H30V0Z" fill="#2D327D"/><path d="M25.5 3C26.325 3 27 3.675 27 4.5V25.5C27 26.325 26.325 27 25.5 27H4.5C3.675 27 3 26.325 3 25.5V4.5C3 3.675 3.675 3 4.5 3H25.5ZM25.5 2.625H4.5C3.46613 2.625 2.625 3.46613 2.625 4.5V25.5C2.625 26.5339 3.46613 27.375 4.5 27.375H25.5C26.5339 27.375 27.375 26.5339 27.375 25.5V4.5C27.375 3.46613 26.5339 2.625 25.5 2.625Z" fill="white"/><path d="M7.96705 15.7208C7.71032 15.7208 7.5022 15.929 7.5022 16.1856C7.5022 16.4423 7.71032 16.6505 7.96705 16.6505H15.6119L14.6823 15.7208H7.96705Z" fill="white"/><path d="M19.0341 16.6505C19.2909 16.6505 19.499 16.4423 19.499 16.1856C19.499 15.9289 19.2909 15.7208 19.0341 15.7208H16.7598L17.6894 16.6505H19.0341Z" fill="white"/><path d="M18.6584 13.754H17.2254L16.9155 11.7965H16.0568L14.8777 13.8388L16.4598 15.4208H17.6961L18.6584 13.754Z" fill="white"/><path d="M17.3431 11.2958L17.6531 13.2535H18.9475L19.3177 12.6123C19.8907 11.6197 19.4359 10.4471 19.7651 9.87682L19.7641 9.87622C20.0934 9.30592 20.6863 7.98007 20.6863 7.98007L20.6965 7.98495C20.7544 8.01277 20.824 7.99125 20.8562 7.93552L20.9838 7.71457C21.0178 7.6557 20.9974 7.58032 20.9382 7.5462L20.0815 7.05157C20.0223 7.01745 19.9468 7.03747 19.9129 7.09627L19.7859 7.31617C19.7535 7.37227 19.7701 7.4439 19.824 7.4799L19.8304 7.48417C19.8304 7.48417 18.9934 8.67082 18.6642 9.24112C18.3349 9.81142 17.0919 10.0038 16.5189 10.9963L16.3459 11.2959L17.3431 11.2958Z" fill="white"/><path d="M19.4945 17.3823C19.5295 17.1559 19.3521 16.9518 19.123 16.9518H17.9907L19.2809 18.2419C19.3764 17.9668 19.4485 17.6797 19.4945 17.3823Z" fill="white"/><path d="M6.375 16.9518C6.16793 16.9518 6 17.1197 6 17.3268V23.625C6 23.8321 6.16793 24 6.375 24H10.07C10.9855 24 11.7938 23.5428 12.2805 22.8446C12.2931 22.8256 12.306 22.8067 12.319 22.788C12.8053 22.0889 13.6139 21.631 14.5301 21.631C14.5365 21.631 14.5427 21.6315 14.5491 21.6315C16.1921 21.5598 17.6438 20.7901 18.555 19.5936L15.9131 16.9518H6.375Z" fill="white"/><path d="M12.5457 10.2595L11.2983 10.2593L12.6942 11.6552C12.5139 11.2063 12.4637 10.7262 12.5457 10.2595Z" fill="white"/><path d="M13.1654 9.92183C13.3725 9.41288 13.7649 9.01478 14.2705 8.80028L14.4145 9.1419L13.102 11.2984C12.964 10.8467 12.985 10.3653 13.1654 9.92183Z" fill="white"/><path d="M9.76425 12.6959L7.34917 12.1206L7.20532 11.7793C8.17087 11.3915 9.26205 11.8076 9.76425 12.6959Z" fill="white"/><path d="M6.56421 10.2587L7.00911 11.3141C7.63236 11.0612 8.31711 11.0612 8.94141 11.3152C9.57426 11.5727 10.0694 12.0604 10.3366 12.6888L11.2606 12.2993L9.22033 10.2591L6.56421 10.2587Z" fill="white"/><path d="M13.41 6.75877L10.3032 9.2643L10.7933 9.75435L12.6887 9.75465C12.6918 9.74692 12.6947 9.7392 12.6978 9.73155C12.9557 9.09765 13.4445 8.6019 14.0744 8.33505L13.41 6.75877Z" fill="white"/><path d="M6.02441 8.97869L6.35119 9.75367L8.71519 9.75404L7.37179 8.41064L6.02441 8.97869Z" fill="white"/><path d="M13.2057 6.27473L13.0899 6L8.83325 7.79453L9.94393 8.9052L13.2057 6.27473Z" fill="white"/><path d="M7.00938 5.97067L5.9707 7.0095L22.9569 23.9956L23.9955 22.9564L7.00938 5.97067Z" fill="#EB0000"/></svg>

<svg class="color-immutable" width="30" height="30" viewBox="0 0 30 30" fill="none" xmlns="http://www.w3.org/2000/svg"><g clip-path="url(#a)"><path d="M30 0H0v30h30V0Z" fill="#2D327D"/><path d="M25.5 3c.825 0 1.5.675 1.5 1.5v21c0 .825-.675 1.5-1.5 1.5h-21c-.825 0-1.5-.675-1.5-1.5v-21C3 3.675 3.675 3 4.5 3h21Zm0-.375h-21A1.877 1.877 0 0 0 2.625 4.5v21c0 1.034.841 1.875 1.875 1.875h21a1.877 1.877 0 0 0 1.875-1.875v-21A1.877 1.877 0 0 0 25.5 2.625Z" fill="#fff"/><path d="M7.967 15.72a.465.465 0 0 0 0 .93h7.645l-.93-.93H7.967ZM19.034 16.65a.465.465 0 0 0 0-.93H16.76l.93.93h1.344ZM18.658 13.754h-1.433l-.31-1.957h-.858l-1.18 2.042 1.583 1.582h1.236l.962-1.667Z" fill="#fff"/><path d="m17.343 11.296.31 1.958h1.295l.37-.642c.573-.992.118-2.165.447-2.735.328-.571.921-1.897.921-1.897l.01.005a.123.123 0 0 0 .16-.05l.128-.22a.123.123 0 0 0-.046-.169l-.857-.494a.123.123 0 0 0-.168.044l-.127.22a.123.123 0 0 0 .038.164l.006.004s-.837 1.187-1.166 1.757c-.33.57-1.572.763-2.145 1.755l-.173.3h.997ZM19.494 17.382a.375.375 0 0 0-.371-.43h-1.132l1.29 1.29c.095-.275.168-.562.213-.86ZM6.375 16.952a.375.375 0 0 0-.375.375v6.298c0 .207.168.375.375.375h3.695a2.69 2.69 0 0 0 2.249-1.212 2.688 2.688 0 0 1 2.211-1.157h.02c1.642-.071 3.094-.84 4.005-2.037l-2.642-2.642H6.375ZM12.546 10.26h-1.248l1.396 1.395a2.549 2.549 0 0 1-.148-1.396ZM13.165 9.922A2.05 2.05 0 0 1 14.271 8.8l.143.342-1.312 2.156a2.047 2.047 0 0 1 .063-1.376ZM9.764 12.696 7.35 12.12l-.144-.342c.966-.387 2.057.029 2.56.917Z" fill="#fff"/><path d="m6.564 10.259.445 1.055a2.55 2.55 0 0 1 1.932.001 2.551 2.551 0 0 1 1.396 1.374l.924-.39-2.04-2.04H6.563ZM13.41 6.759l-3.107 2.505.49.49h1.896l.009-.022a2.55 2.55 0 0 1 1.376-1.397L13.41 6.76ZM6.024 8.979l.327.775h2.364L7.372 8.411l-1.348.568ZM13.206 6.275 13.09 6 8.833 7.795l1.11 1.11 3.263-2.63Z" fill="#fff"/><path d="M7.01 5.97 5.97 7.01l16.987 16.986 1.038-1.04L7.01 5.971Z" fill="#EB0000"/></g><defs><clipPath id="a"><path fill="#fff" d="M0 0h30v30H0z"/></clipPath></defs></svg>
